X:1419
T:Der Maien ist kommen
C:anon.
O:Switzerland
R:German waltz
Z:Transcribed by Frank Nordberg - http://www.musicaviva.com
F:http://abc.musicaviva.com/tunes/switzerland/der-maien-ist-kommen.abc
M:3/4
L:1/4
Q:1/4=180
K:G
G|"G"Bdc|"G"BGA|"G"Bdc|"D"A2(G/A/)|
w:Der Mai-en ist kom-men und das ist ja was! Es_
"G"Bdc|"G"BGA|"G"B(d/c/) (B/A/)|"G"G2|:(G/A/)|
w:gr\"u-net jetzt al-les in Laub und_ in_ Gras. In_
"G"Bdc|"D"A2(G/A/)|"G"Bdc|"D"A2(G/A/)|
w:Laub  und in Gras sind_ Blu-men so viel, drum_
"G"Bdc|"G"BGA|"G/D"B2"D"A|"G"G2:|
w:tan-zet's Ma-rei-li zum Sai-ten-spiel.
W:
W:Der Maien ist kommen und das ist ja was!
W:Es gr\"unet jetzt alles in Laub und in Gras.
W:In Laub  und in Gras sind Blumen so viel,
W:drum tanzet's Mareili zum Saitenspiel.
W:
W:
W:  From Musica Viva - http://www.musicaviva.com
W:  the Internet center for free sheet music downloads.

